build/img/svg/extra-img-3.svg

<svg width="32" height="16" viewBox="0 0 32 16" fill="none" xmlns="http://www.w3.org/2000/svg">
<path fill-rule="evenodd" clip-rule="evenodd" d="M28.8992 0C30.6117 0 32 1.39911 32 3.125V12.875C32 14.6009 30.6117 16 28.8992 16H3.10078C1.38826 16 0 14.6009 0 12.875V3.125C0 1.39911 1.38826 0 3.10078 0H28.8992ZM12.71 2.911C12.0313 2.911 11.428 3.02737 10.9001 3.26012C10.3722 3.49287 9.96217 3.82775 9.66995 4.26475C9.37774 4.70175 9.23163 5.21475 9.23163 5.80375C9.23163 6.43075 9.37538 6.93188 9.66288 7.30713C9.95039 7.68237 10.2944 7.96263 10.6951 8.14787C11.0957 8.33313 11.6165 8.52075 12.2575 8.71075C12.7288 8.84375 13.0988 8.96488 13.3674 9.07413C13.6361 9.18338 13.86 9.333 14.0391 9.523C14.2182 9.713 14.3077 9.95525 14.3077 10.2498C14.3077 10.6108 14.1758 10.9029 13.9118 11.1261C13.6479 11.3494 13.285 11.461 12.8231 11.461C12.3706 11.461 12.0148 11.3422 11.7555 11.1047C11.5067 10.8767 11.3642 10.57 11.3282 10.1844L11.3243 10.1357H9.20335L9.20495 10.2006C9.22476 10.7813 9.38918 11.2869 9.69823 11.7175C10.0187 12.164 10.4547 12.506 11.0061 12.7435C11.5576 12.981 12.1774 13.0997 12.8655 13.0997C13.5913 13.0997 14.2182 12.9644 14.746 12.6936C15.2739 12.4229 15.6745 12.0595 15.9479 11.6035C16.2213 11.1475 16.358 10.6535 16.358 10.1215C16.358 9.504 16.2118 9.00525 15.9196 8.62525C15.6274 8.24525 15.2786 7.96025 14.8733 7.77025C14.468 7.58025 13.9448 7.39025 13.3038 7.20025C12.8325 7.05775 12.4672 6.93188 12.208 6.82263C11.9488 6.71338 11.732 6.57087 11.5576 6.39512C11.3832 6.21938 11.296 5.9985 11.296 5.7325C11.296 5.3525 11.4115 5.06275 11.6424 4.86325C11.8734 4.66375 12.1821 4.564 12.5686 4.564C13.0116 4.564 13.3674 4.67563 13.6361 4.89888C13.8936 5.11282 14.0363 5.3813 14.0643 5.70431L14.0673 5.74675H16.2448L16.2399 5.68617C16.1627 4.82222 15.8133 4.14654 15.1914 3.65913C14.5552 3.16038 13.728 2.911 12.71 2.911ZM23.3942 2.911C22.4704 2.911 21.6221 3.1295 20.8491 3.5665C20.0762 4.0035 19.4634 4.60913 19.011 5.38338C18.5585 6.15763 18.3323 7.02925 18.3323 7.99825C18.3323 8.97675 18.5585 9.85312 19.011 10.6274C19.4634 11.4016 20.0762 12.0072 20.8491 12.4443C21.6221 12.8813 22.4704 13.0997 23.3942 13.0997C24.318 13.0997 25.1664 12.8813 25.9393 12.4443C26.7123 12.0072 27.3227 11.4016 27.7704 10.6274C28.2182 9.85312 28.442 8.97675 28.442 7.99825C28.442 7.02925 28.2182 6.15763 27.7704 5.38338C27.3227 4.60913 26.7147 4.0035 25.9464 3.5665C25.1782 3.1295 24.3274 2.911 23.3942 2.911ZM6.76242 3.0535H4.78288V13H6.76242V3.0535ZM23.3942 4.7065C23.9881 4.7065 24.5113 4.8395 24.9637 5.1055C25.4162 5.3715 25.7697 5.75387 26.0242 6.25262C26.2787 6.75138 26.406 7.33325 26.406 7.99825C26.406 8.66325 26.2787 9.2475 26.0242 9.751C25.7697 10.2545 25.4162 10.6416 24.9637 10.9124C24.5113 11.1831 23.9881 11.3185 23.3942 11.3185C22.8004 11.3185 22.2749 11.1831 21.8177 10.9124C21.3605 10.6416 21.0047 10.2545 20.7501 9.751C20.4956 9.2475 20.3684 8.66325 20.3684 7.99825C20.3684 7.33325 20.4956 6.75138 20.7501 6.25262C21.0047 5.75387 21.3605 5.3715 21.8177 5.1055C22.2749 4.8395 22.8004 4.7065 23.3942 4.7065Z" fill="white"/>
</svg>

<svg width="32" height="16" fill="none" xmlns="http://www.w3.org/2000/svg"><path fill-rule="evenodd" clip-rule="evenodd" d="M28.9 0C30.611 0 32 1.4 32 3.125v9.75C32 14.601 30.612 16 28.9 16H3.1C1.389 16 0 14.6 0 12.875v-9.75C0 1.399 1.388 0 3.1 0h25.8zM12.71 2.911c-.679 0-1.282.116-1.81.35-.528.232-.938.567-1.23 1.004-.292.437-.438.95-.438 1.539 0 .627.143 1.128.43 1.503a2.74 2.74 0 001.033.84c.4.186.921.374 1.563.564.47.133.84.254 1.11.363.268.11.492.259.671.449.18.19.269.432.269.727 0 .36-.132.653-.396.876-.264.223-.627.335-1.089.335-.452 0-.808-.119-1.068-.356-.248-.228-.39-.535-.427-.92l-.004-.05h-2.12v.066c.02.58.185 1.086.494 1.516.32.447.757.789 1.308 1.026.552.238 1.171.357 1.86.357.725 0 1.352-.136 1.88-.406.528-.271.928-.635 1.202-1.09.273-.456.41-.95.41-1.482 0-.618-.146-1.117-.438-1.497a2.823 2.823 0 00-1.047-.855c-.405-.19-.928-.38-1.57-.57a11.673 11.673 0 01-1.095-.377 1.994 1.994 0 01-.65-.428.902.902 0 01-.262-.662c0-.38.116-.67.346-.87.231-.2.54-.299.927-.299.443 0 .798.112 1.067.335.258.214.4.482.428.805l.003.043h2.178l-.005-.06c-.077-.865-.427-1.54-1.049-2.028-.636-.499-1.463-.748-2.481-.748zm10.684 0c-.924 0-1.772.219-2.545.655a4.874 4.874 0 00-1.838 1.817c-.453.775-.679 1.646-.679 2.615 0 .979.226 1.855.679 2.63a4.875 4.875 0 001.838 1.816 5.082 5.082 0 002.545.656c.924 0 1.772-.219 2.545-.656a4.823 4.823 0 001.831-1.817c.448-.774.672-1.65.672-2.629 0-.969-.224-1.84-.672-2.615a4.836 4.836 0 00-1.824-1.817 5.07 5.07 0 00-2.552-.655zm-16.632.143h-1.98V13h1.98V3.053zm16.632 1.653c.594 0 1.117.133 1.57.399.452.266.806.648 1.06 1.147.255.498.382 1.08.382 1.745s-.127 1.25-.382 1.753c-.254.504-.608.89-1.06 1.161-.453.271-.976.406-1.57.406-.594 0-1.12-.135-1.576-.406a2.762 2.762 0 01-1.068-1.161c-.254-.503-.382-1.088-.382-1.753 0-.665.128-1.247.382-1.745.255-.5.61-.881 1.068-1.147.457-.266.982-.4 1.576-.4z" fill="#fff"/></svg>
